!!!!SEGMENT: pl-kozmzk--mzk-m-346--038_walczynski-franciszek--cantantibus-organis-andante.krn
!!!cenid: 18xx:2833
!!!COM: Walczyński, Franciszek
!!!COM-rismid: pe30021989
!!!CDT: ~1852-1937
!!!CNT: Polish
!!!GTL: Cantantibus organis op. 10
!!!OTL: 38. Andante
!!!PDT: 1898
!!!AGN: Secular
!!!SMS-siglum: PL-KOZmzk
!!!SMS-shelfmark: mzk/m/346
!!!SMS-shelfwork: 038 G
!!!SMS-variant:
!!!SMS-altvar:
!!!NIFC-rismid: 1001109438
!!!URL-scan: https://repozytorium.nifc.pl/islandora/object/pl-kozmzk%3A7453/datastream/PDF/view
!!!ONB-nifc:
**kern	**kern	**dynam
*part1	*part1	*part1
*staff2	*staff1	*
*I"Organo	*I"Organo	*
*clefF4	*clefG2	*
*k[b-]	*k[b-]	*
*d:	*d:	*
*M2/4	*M2/4	*
=1	=1	=1
*^	*^	*
!!LO:TX:a:B:t=Andante.
2rg	(8D\L	(4.a/	(4.f\	f
.	8A\	.	.	.
.	8d\	.	.	.
.	8c\J	8a/	8e\	.
=2	=2	=2	=2	=2
8rg	4B-\	8g/L	4d\	.
8d/	.	16f/L	.	.
.	.	16g/JJ	.	.
4c#X^/	4A\)	4a/)	4e\)	.
=3	=3	=3	=3	=3
!	!	!	!	!LO:DY:a
2rg	(8D\L	(4.a/	(4.f\	pp
.	8A\	.	.	.
.	8d\	.	.	.
.	8c\J	8a/	8e\	.
=4	=4	=4	=4	=4
8rg	4B-\	8g/L	4d\	.
8d/	.	16f/L	.	.
.	.	16g/JJ	.	.
4A/	8A\L	4e/)	4c#X\)	>
.	8AA\J)	.	.	]]
=5	=5	=5	=5	=5
2rg	(8D\L	(4.f#X/	[2d\	fp
.	8A\	.	.	.
.	8d\	.	.	.
.	8c\J	8f#/	.	.
=6	=6	=6	=6	=6
4rg	8B-\L	8g/L	2d\_	.
.	8F#X\	8a/	.	.
8rg	8G\	8b-/	.	.
8B-/	8GG\J)	8g/J)	.	.
=7	=7	=7	=7	=7
!	!	!	!	!LO:DY:a
8A/L	(2AA\	(4.f/	(4d\]	pp
8G#X/J	.	.	.	.
4Gn/	.	.	4c#X\	.
.	.	8e/	.	.
=8	=8	=8	=8	=8
!	!	!	!	!LO:HP:b=2
4F/	4D\	4d/))	4d\	<
4G/	4E\)	4r	4cn^\	[[
=9	=9	=9	=9	=9
[2c/	(8FF\L	(4.a/	(4.f\	fp
.	8C\	.	.	.
.	8F\	.	.	.
.	16c\L	8g/	8e\	.
.	16B-\JJ	.	.	.
=10	=10	=10	=10	=10
8c/L]	8A\L	8cc/L	8f\L	.
8d/J	8G\J	8b-/J	8g\J	.
4c/)	4c\	4g/)	4e\)	.
=11	=11	=11	=11	=11
!	!	!	!	!LO:DY:a
([2c/	(8FF\L	(4.a/	(4.f\	pp
.	8C\	.	.	.
.	8F\	.	.	.
.	16c\L	8g/	8e\	.
.	16B-\JJ	.	.	.
=12	=12	=12	=12	=12
8c/L]	8A\L	8cc/L	8f\L	.
[8d/J	8G\J	8b-/J	8g\J	.
4d/])	4D\)	4a/)	4f#X\)	.
=13	=13	=13	=13	=13
!!LO:LB:g=original
!	!	!	!	!LO:DY:t=pf
[2d/	(8GG\L	(4.b-/	(4.g\	p
.	8D\	.	.	.
.	8G\	.	.	.
.	16d\L	8a/	8f#X\	.
.	16c\JJ	.	.	.
=14	=14	=14	=14	=14
4d/_	8B-\L	8dd/L	8g\L	.
.	8A\J	8cc/J	8f#X\J	.
4d/]	8d\L	4a/)	4f#\)	.
.	8D\J)	.	.	.
=15	=15	=15	=15	=15
[2d/	(8GG\L	(4.b-/	4.g\	f
.	8D\	.	.	.
.	8G\	.	.	.
.	16d\L	8a/	8f#X\	.
.	16c\JJ	.	.	.
=16	=16	=16	=16	=16
4d/]	4B-\	8dd/L	2g\	<
.	.	16cc#X/L	.	.
.	.	16dd/JJ	.	.
4c#X/	4A\)	8ee/L	.	.
.	.	16dd#X/L	.	.
.	.	16ee/JJ)	.	[[
=17	=17	=17	=17	=17
[2d/	(8D\L	(4.ff/	(4.a\	ff
.	8A\	.	.	.
.	8d\	.	.	.
.	8cn\J	8ee-X/	8f#X\	.
=18	=18	=18	=18	=18
4.d/]	8B-\L	8dd/L	8g\L	.
.	8A\J	8ff#X/	8cc\J	.
.	4G\)	8gg/	4b-\)	.
8c#X/	.	8een/J)	.	.
=19	=19	=19	=19	=19
4d/	4A\	(8ff/L	([4a\	.
.	.	16ee/L	.	.
.	.	16dd/JJ	.	.
4c#X/	4AA\	4ee/	8a\L]	.
.	.	.	8g\J)	.
=20	=20	=20	=20	=20
!	!LO:TX:i:b=2:t=Ped.	!	!	!LO:DY:a
(8d/L	[2D\	2dd/	(8f\L	p
8cn/J	.	.	16f#X\L	.
.	.	.	16g\JJ	.
8B-/L	.	.	8g\L	.
16A/L	.	.	16a\L	.
16G/JJ	.	.	16b-\JJ	.
=21	=21	=21	=21	=21
4F#X/	2D\_	[2dd/)	8a\L	.
.	.	.	16b-\L	.
.	.	.	16cc\JJ	.
8G/L	.	.	8b-\L	.
16A/L	.	.	16a\L	.
16B-/JJ)	.	.	16g\JJ)	.
=22	=22	=22	=22	=22
!	!	!	!	!LO:HP:a
(8A/L	2D\_	2dd/_	(8f#X\L	<
16B-/L	.	.	16g\L	.
16A/JJ	.	.	16e\JJ	.
8A/L	.	.	8f#\L	.
16Bn/L	.	.	16g\L	.
16G/JJ	.	.	16e\JJ	.
=23	=23	=23	=23	=23
!LO:TX:b:i:t=rit.	!	!	!	!
4A/	2D\_	2dd/_	4f#X\	.
!	!	!	!	!LO:HP:a
4B-X/	.	.	8g\L	[ >
.	.	.	8d\J)	.
=24	=24	=24	=24	=24
2A/)	2D;\]	2dd;/]	2f#X\	]
*v	*v	*	*	*
*	*v	*v	*
==	==	==
*-	*-	*-
!!!system-decoration: {(s1,s2)}
!!!ENC: Kamil Watkowski
!!!END: 2021-08-09
